src/assets/OvalOrnament.svg

<svg width="137" height="153" viewBox="0 0 137 153" fill="none" xmlns="http://www.w3.org/2000/svg">
<path d="M76.5 21.963L111.3 42.0548C116.25 44.9129 119.3 50.1949 119.3 55.9112V96.0948C119.3 101.811 116.25 107.093 111.3 109.951L76.5 130.043C71.5496 132.901 65.4504 132.901 60.5 130.043L25.7 109.951C20.7496 107.093 17.7 101.811 17.7 96.0948V55.9112C17.7 50.1949 20.7496 44.9129 25.7 42.0548L60.5 21.963C65.4504 19.1049 71.5496 19.1049 76.5 21.963Z" fill="#C2CEFF"/>
<path fill-rule="evenodd" clip-rule="evenodd" d="M78.5 2.67949C72.312 -0.893166 64.688 -0.893162 58.5 2.67949L10 30.681C3.81198 34.2536 0 40.8562 0 48.0015V104.004C0 111.15 3.81198 117.752 10 121.325L58.5 149.326C64.688 152.899 72.312 152.899 78.5 149.326L127 121.325C133.188 117.752 137 111.15 137 104.004V48.0015C137 40.8562 133.188 34.2536 127 30.681L78.5 2.67949ZM58.5 18.4989C64.688 14.9262 72.312 14.9262 78.5 18.4989L113.3 38.5907C119.488 42.1633 123.3 48.7659 123.3 55.9112V96.0948C123.3 103.24 119.488 109.843 113.3 113.415L78.5 133.507C72.312 137.08 64.688 137.08 58.5 133.507L23.7 113.415C17.512 109.843 13.7 103.24 13.7 96.0948V55.9112C13.7 48.7659 17.512 42.1633 23.7 38.5907L58.5 18.4989Z" fill="#C2CEFF"/>
</svg>

<svg width="137" height="153" fill="none"><path fill="#C2CEFF" d="m76.5 21.963 34.8 20.092a16 16 0 0 1 8 13.856v40.184a16 16 0 0 1-8 13.856l-34.8 20.092a16 16 0 0 1-16 0l-34.8-20.092a16 16 0 0 1-8-13.856V55.91a16 16 0 0 1 8-13.856l34.8-20.092a16 16 0 0 1 16 0Z"/><path fill="#C2CEFF" fill-rule="evenodd" d="M78.5 2.68a20 20 0 0 0-20 0L10 30.68a20 20 0 0 0-10 17.32v56.003a20 20 0 0 0 10 17.321l48.5 28.001a19.998 19.998 0 0 0 20 0l48.5-28.001a20 20 0 0 0 10-17.321V48.001a20 20 0 0 0-10-17.32L78.5 2.679Zm-20 15.819a20 20 0 0 1 20 0l34.8 20.092a20 20 0 0 1 10 17.32v40.184a19.999 19.999 0 0 1-10 17.32l-34.8 20.092a19.998 19.998 0 0 1-20 0l-34.8-20.092a19.999 19.999 0 0 1-10-17.32V55.91a20 20 0 0 1 10-17.32l34.8-20.092Z" clip-rule="evenodd"/></svg>
